flaticon/essential/zoom-out.svg

<svg xmlns="http://www.w3.org/2000/svg" width="32" height="32" viewBox="0 0 24 24">
    <path d="M 13.132812 9.0625 L 6.789062 9.0625 C 6.539062 9.0625 6.335938 9.265625 6.335938 9.515625 C 6.335938 9.765625 6.539062 9.96875 6.789062 9.96875 L 13.132812 9.96875 C 13.382812 9.96875 13.585938 9.765625 13.585938 9.515625 C 13.585938 9.265625 13.382812 9.0625 13.132812 9.0625 Z M 13.132812 9.0625"/>
    <path d="M 23.429688 23.234375 L 16.695312 16.230469 C 18.414062 14.507812 19.476562 12.132812 19.476562 9.515625 C 19.476562 4.269531 15.207031 0 9.960938 0 C 4.714844 0 0.445312 4.269531 0.445312 9.515625 C 0.445312 14.761719 4.714844 19.03125 9.960938 19.03125 C 12.265625 19.03125 14.378906 18.207031 16.027344 16.839844 L 22.773438 23.859375 C 22.863281 23.953125 22.980469 24 23.101562 24 C 23.214844 24 23.328125 23.957031 23.414062 23.875 C 23.597656 23.699219 23.601562 23.414062 23.429688 23.234375 Z M 1.351562 9.515625 C 1.351562 4.769531 5.214844 0.90625 9.960938 0.90625 C 14.707031 0.90625 18.570312 4.769531 18.570312 9.515625 C 18.570312 14.261719 14.707031 18.125 9.960938 18.125 C 5.214844 18.125 1.351562 14.261719 1.351562 9.515625 Z M 1.351562 9.515625"/>
</svg>

<svg xmlns="http://www.w3.org/2000/svg" width="32" height="32" viewBox="0 0 24 24">
    <path d="M13.133 9.063H6.789a.453.453 0 0 0 0 .906h6.344a.453.453 0 0 0 0-.906zm0 0"/>
    <path d="M23.43 23.234l-6.735-7.004a9.482 9.482 0 0 0 2.782-6.714C19.477 4.27 15.207 0 9.96 0S.445 4.27.445 9.516s4.27 9.515 9.516 9.515a9.471 9.471 0 0 0 6.066-2.191l6.746 7.02a.45.45 0 0 0 .641.015.452.452 0 0 0 .016-.64zM1.352 9.516c0-4.746 3.863-8.61 8.609-8.61s8.61 3.864 8.61 8.61c0 4.746-3.864 8.609-8.61 8.609-4.746 0-8.61-3.863-8.61-8.61zm0 0"/>
</svg>
